X: 1295
T: Bob in the Washhouse
B: australian traditional tunes wiki
M:4/4
L:1/8
R: Schottische
Q: 1/4=100
K:D
V:1 
|:"D"A2A>F "Bm"D>E F>G|"D"A>F A>d "G"B2G>B|"A7"e2e>c A>B c>d|e>c e>a "D"f2d2|
"D"A2A>F "Bm"D>E F>G|"D"A>F Ad"G"B2G2|"D"(3fgf f>d "A7"e>f e>c|"D"d2d>dd3A:|
|:"D"d2d>Ad2d>A|d>e d>A G>FD2|"A7"e2e>c e2e>c|(3fgf e>d "A7"c2A2|
"D"d2d>Ad2d>A|d2A>GF2D2|(3fgf f>d "A7"e>f e>c|"D"d2d>dd4:|
% abcbook-tune_id 6342d53a7b0f8d97c90f9ebb


% abcbook-boost 0
% abcbook-tablature 
% abcbook-transpose 
% abcbook-lastupdated 1665324357827
% abcbook-soundfonts 
% abcbook-repeats 1
% NFF Book 2008

